!!!!SEGMENT: pl-kk--kk-i-366_anonim--sub-tuum-praesidium.krn
!!!id: 17xx:1966
!!!COM: Anonim
!!!COM-rism: pe30004985
!!!CDT:
!!!CNT:
!!!OTL: Sub tuum praesidium
!!!PDT:
!!!SMS-siglum: PL-Kk
!!!SMS-shelfmark: Kk.I.366
!!!NIFC-rismID: 1001143198
!!!URL-scan: http://repozytorium.nifc.pl/skany/pl-kk-nut--i-366
!!!ONB-nifc:
!!!SMS-variant:
!!!SMS-altvar:
**kern	**text	**kern	**text	**kern	**text	**kern	**text	**dynam
*part4	*part4	*part3	*part3	*part2	*part2	*part1	*part1	*part1
*staff4	*staff4	*staff3	*staff3	*staff2	*staff2	*staff1	*staff1	*
*I"Baſso.	*	*I"Tenore II.	*	*I"Tenore Imo.	*	*I"Alto.	*	*
*I'B	*	*I'T 2	*	*I'T 1	*	*I'A	*	*
*clefF4	*	*clefC4	*	*clefC4	*	*clefC3	*	*
*k[]	*	*k[]	*	*k[]	*	*k[]	*	*
*M2/1	*	*M2/1	*	*M2/1	*	*M2/1	*	*
=1	=1	=1	=1	=1	=1	=1	=1	=1
*	*	*	*	*	*	*	*	*
*	*	*	*	*	*	*2\right	*	*
!	!	!	!	!	!	!	!	!
!LO:TX:a:t=Antiphona de B.U.M. a 4 Voci Pari 2dus Ten. al. Baſs Sub Tuus praesidiy ex D# Opus Nobile Italianum	!	!LO:TX:a:t=P:problem:kreska pseudotaktowa	!	!LO:TX:a:t=P:problem:kreska pseudotaktowa	!	!	!	!LO:DY:a:t=Forte
00r	.	1D	Sub	1r	.	2.d\	Sub	f
!	!	!	!	!	!	!LO:TX:a:t=P:problem:kreska pseudotaktowa	!	!
.	.	.	.	.	.	4e\	Tu-	.
!	!	!LO:TX:a:t=P:problem:kreska pseudotaktowa	!	!	!	!	!	!
.	.	1D	Tu-	1.A	Sub	2.f#X\	-um	.
!	!	!	!	!	!	!LO:TX:a:t=P:problem:kreska pseudotaktowa	!	!
.	.	.	.	.	.	4g\	prae-	.
=2	=2	=2	=2	=2	=2	=2	=2	=2
!LO:TX:a:t=P:problem:kreska pseudotaktowa	!	!LO:TX:a:t=P:problem:kreska pseudotaktowa	!	!	!	!	!	!
.	.	1F#X,	-um	.	.	(4a\	.	.
.	.	.	.	.	.	4g\	.	.
!	!	!	!	!LO:TX:a:t=P:problem:kreska pseudotaktowa	!	!	!	!
.	.	.	.	2A/	Tu-	4f#X\)	.	.
!	!	!	!	!	!	!LO:TX:a:t=P:problem:kreska pseudotaktowa	!	!
.	.	.	.	.	.	4e\	.	.
!	!	!LO:TX:a:t=P:problem:kreska pseudotaktowa	!	!LO:TX:a:t=P:problem:kreska pseudotaktowa	!	!	!	!
.	.	1G	prae-	1Bn,	-um	4d\	.	.
.	.	.	.	.	.	8e\L	.	.
.	.	.	.	.	.	8f#X\J	.	.
.	.	.	.	.	.	4g\	.	.
!	!	!	!	!	!	!LO:TX:a:t=P:problem:kreska pseudotaktowa	!	!
.	.	.	.	.	.	4f#\	.	.
=3	=3	=3	=3	=3	=3	=3	=3	=3
!LO:TX:a:t=P:problem:kreska pseudotaktowa	!	!LO:TX:a:t=P:problem:kreska pseudotaktowa	!	!LO:TX:a:t=P:problem:kreska pseudotaktowa	!	!	!	!
1AA	Sub	[<1A	-si-	1c#X	Prae-	4e\	.	.
!	!	!	!	!	!	!LO:TX:a:t=P:problem:# above	!	!
.	.	.	.	.	.	8f#X\L	.	.
.	.	.	.	.	.	8g\J	.	.
!	!	!	!	!	!	!LO:TX:a:t=P:problem:kreska pseudotaktowa	!	!
.	.	.	.	.	.	<1a\	-si-	.
!LO:TX:a:t=P:problem:kreska pseudotaktowa	!	!	!	!LO:TX:a:t=P:problem:kreska pseudotaktowa	!	!	!	!
!	!	!LO:N:xstem:cue:vis	!	!	!	!	!	!
1C#X	Tu-	2A]	.	[<1e	.	.	.	.
!	!	!LO:TX:a:t=P:problem:kreska pseudotaktowa	!	!	!	!LO:TX:a:t=P:problem:kreska pseudotaktowa	!	!
.	.	2G/	-di-	.	.	2e\	-di-	.
=4	=4	=4	=4	=4	=4	=4	=4	=4
!LO:TX:a:t=P:problem:kreska pseudotaktowa	!	!LO:TX:a:t=P:problem:kreska pseudotaktowa	!	!	!	!LO:TX:a:t=P:problem:kreska pseudotaktowa	!	!
1D,	-um	1F#X,	-um	4e]	.	1A,	-um	.
.	.	.	.	4d\	.	.	.	.
.	.	.	.	1d	-si-	.	.	.
!LO:TX:a:t=P:problem:kreska pseudotaktowa	!	!	!	!	!	!	!	!
*	*	*lig	*	*2\right	*	*	*	*
!	!	!	!	!	!	!LO:TX:a:t=P:problem:kreska pseudotaktowa	!	!
1E	prae-	1Gn	con-	.	.	1r	.	.
!	!	!	!	!LO:TX:a:t=P:problem:kreska pseudotaktowa	!	!	!	!
!	!	!	!	!	!	!	!	!
.	.	.	.	2c#X\	-di-	.	.	.
=5	=5	=5	=5	=5	=5	=5	=5	=5
(4F#X\	.	1A	.	2d,\	-um	(4.a\	con-	.
4E\	.	.	.	.	.	.	.	.
.	.	.	.	.	.	8g\	.	.
4D\)	.	.	.	2d\	con-	4f#X\	.	.
8E\L	.	.	.	.	.	4e\)	.	.
8F#\J	.	.	.	.	.	.	.	.
!LO:TX:a:t=P:problem:kreska pseudotaktowa	!	!	!	!LO:TX:a:t=P:problem:kreska pseudotaktowa	!	!LO:TX:a:t=P:problem:kreska pseudotaktowa	!	!
*2\right	*	*Xlig	*	*	*	*	*	*
!	!	!LO:TX:a:t=P:problem:kreska pseudotaktowa	!	!	!	!LO:TX:a:t=P:problem:kreska pseudotaktowa	!	!
2G\	.	[<1Bn	.	(4d\	-fu-	<1.d	-fu-	.
.	.	.	.	4c\	.	.	.	.
2.GG/	.	.	.	4B\	.	.	.	.
!	!	!	!	!LO:TX:a:t=P:problem:kreska pseudotaktowa	!	!	!	!
.	.	.	.	4A\)	.	.	.	.
=6	=6	=6	=6	=6	=6	=6	=6	=6
!	!	!LO:TX:a:t=P:problem:kreska pseudotaktowa	!	!	!	!LO:N:xstem:cue:vis	!	!
.	.	1B]	.	2.G/	-gi-	.	.	.
4AA/	.	.	.	.	.	.	.	.
!	!	!	!	!	!	!LO:TX:a:t=P:problem:kreska pseudotaktowa	!	!
4BB/	.	.	.	.	.	2d\	-gi-	.
!LO:TX:a:t=P:problem:kreska pseudotaktowa	!	!	!	!LO:TX:a:t=P:problem:kreska pseudotaktowa	!	!	!	!
4C/	.	.	.	4G/	.	.	.	.
*	*	*2\right	*	*	*	*	*	*
(4D\	.	2A\	-fu-	2D,/	-m(us)	2.f#X,\	-m(us)	.
4E\	.	.	.	.	.	.	.	.
!	!	!LO:TX:a:t=P:problem:kreska pseudotaktowa	!	!LO:TX:a:t=P:problem:kreska pseudotaktowa	!	!	!	!
4F#X\	.	2A\	-gi-	2d\	con-	.	.	.
!	!	!	!	!	!	!LO:TX:a:t=P:problem:kreska pseudotaktowa	!	!
!LO:TX:a:t=P:problem:kreska pseudotaktowa	!	!	!	!	!	!LO:SIC:v:t=custos e	!	!
4D\)	.	.	.	.	.	4a\	con-	.
!	!	!	!	!	!	!	!	!
!	!	!	!	!	!	!LO:LB:g=original	!	!
=7	=7	=7	=7	=7	=7	=7	=7	=7
!	!	!LO:TX:a:t=P:problem:kreska pseudotaktowa	!	!	!	!	!	!
2.A\	-si-	1A,	-m(us)	2.d\	-fu-	2.e\	-fu-	.
!LO:TX:a:t=P:problem:kreska pseudotaktowa	!	!	!	!LO:TX:a:t=P:problem:kreska pseudotaktowa	!	!	!	!
4AA/	-di-	.	.	4c#X\	-gi-	4e\	-gi-	.
!LO:TX:a:t=P:problem:kreska pseudotaktowa	!	!LO:TX:a:t=P:problem:kreska pseudotaktowa	!	!	!	!LO:TX:a:t=P:problem:kreska pseudotaktowa	!	!
1D,	-um	1A	San-	2d,\	-m(us)	1fn,	-m(us)	.
.	.	.	.	1d\	San-	.	.	.
=8	=8	=8	=8	=8	=8	=8	=8	=8
*	*	*lig	*	*	*	*	*	*
4AA/	con-	1A	-cta	.	.	1.e	San-	.
4BB/	.	.	.	.	.	.	.	.
!	!	!	!	!LO:TX:a:t=P:problem:kreska pseudotaktowa	!	!	!	!
4Cn/	.	.	.	2cn\	-cta	.	.	.
!LO:TX:a:t=P:problem:kreska pseudotaktowa	!	!	!	!	!	!	!	!
4D\	.	.	.	.	.	.	.	.
!	!	!	!	!LO:TX:a:t=P:problem:kreska pseudotaktowa	!	!	!	!
!	!	!LO:TX:a:t=P:problem:kreska pseudotaktowa	!	!LO:TX:a:t=P:problem:♮ above	!	!	!	!
4E\	.	1G	.	1Bn	De-	.	.	.
4F\	.	.	.	.	.	.	.	.
!LO:TX:a:t=P:problem:kreska pseudotaktowa	!	!	!	!	!	!	!	!
!LO:SIC:v:t=custos D	!	!	!	!	!	!	!	!
2G\	.	.	.	.	.	2d\	-cta	.
!	!	!	!	!	!	!	!	!
!	!	!	!	!	!	!LO:TX:a:t=P:problem:kreska pseudotaktowa	!	!
*	*	*Xlig	*	*	*	*	*	*
!	!	!	!	!	!	!	!	!
!LO:LB:g=original	!	!	!	!	!	!	!	!
=9	=9	=9	=9	=9	=9	=9	=9	=9
!	!	!LO:TX:a:t=P:problem:kreska pseudotaktowa	!	!LO:TX:a:t=P:problem:kreska pseudotaktowa	!	!	!	!
4D'/	-fu-	1F#X	DE-	1A	-i	1.d	DE-	.
4C'/	-gi-	.	.	.	.	.	.	.
(4BB/	-m(us)	.	.	.	.	.	.	.
!LO:TX:a:t=P:problem:kreska pseudotaktowa	!	!	!	!	!	!	!	!
4AA,/)	.	.	.	.	.	.	.	.
!	!	!	!	!	!	!	!	!
!	!	!	!	!LO:LB:g=original	!	!	!	!
!	!	!LO:TX:a:t=P:problem:kreska pseudotaktowa	!	!	!	!	!	!
2GG/	San-	1E	-i	2Bn\	San-	.	.	.
!LO:TX:a:t=P:problem:kreska pseudotaktowa	!	!	!	!LO:TX:a:t=P:problem:kreska pseudotaktowa	!	!LO:TX:a:t=P:problem:kreska pseudotaktowa	!	!
2AA/	-cta	.	.	2A/	-cta	2c#X/	.	.
=10	=10	=10	=10	=10	=10	=10	=10	=10
!LO:TX:a:t=P:problem:kreska pseudotaktowa	!	!	!	!	!	!	!	!
*	*	*lig	*	*	*	*	*	*
!	!	!	!	!LO:TX:a:t=P:problem:kreska pseudotaktowa	!	!LO:TX:a:t=P:problem:kreska pseudotaktowa	!	!
[<1D	De-	1F#X	Ge-	1A	De-	1d	-I	.
!LO:N:xstem:cue:vis	!	!LO:SIC:v:t=custos D	!	!	!	!	!	!
2D]	.	1E	.	2G/	-i	2e\	Ge-	.
2C/	-i	.	.	2A/	Ge-	1A/	.	.
!LO:TX:a:t=P:problem:kreska pseudotaktowa	!	!	!	!LO:TX:a:t=P:problem:kreska pseudotaktowa	!	!	!	!
*	*	*Xlig	*	*	*	*	*	*
!	!	!	!	!	!	!	!	!
!	!	!LO:LB:g=original	!	!	!	!	!	!
=11	=11	=11	=11	=11	=11	=11	=11	=11
1BBn	Ge-	1D	.	4B\	.	.	.	.
.	.	.	.	4c\	.	.	.	.
!	!	!	!	!	!	!LO:TX:a:t=P:problem:kreska pseudotaktowa	!	!
.	.	.	.	4d\	.	2G#X/	.	.
!	!	!	!	!LO:TX:a:t=P:problem:kreska pseudotaktowa	!	!	!	!
.	.	.	.	4D/	.	.	.	.
2.AA/	.	2.C#X/	.	2.E/	.	1.A	.	.
!LO:TX:a:t=P:problem:kreska pseudotaktowa	!	!LO:TX:a:t=P:problem:kreska pseudotaktowa	!	!LO:TX:a:t=P:problem:kreska pseudotaktowa	!	!	!	!
4AA/	-ni-	4C#/	-ni-	4E/	-ni-	.	.	.
=12	=12	=12	=12	=12	=12	=12	=12	=12
!LO:TX:a:t=P:problem:kreska pseudotaktowa	!	!LO:TX:a:t=P:problem:kreska pseudotaktowa	!	!	!	!	!	!
1D,	-trix.	1D,	-trix	2F#X,/	-trix	.	.	.
!	!	!	!	!LO:TX:a:t=P:problem:kreska pseudotaktowa	!	!	!	!
.	.	.	.	2A/	no-	2A/	-ni-	.
!	!	!LO:TX:a:t=P:problem:kreska pseudotaktowa	!	!	!	!LO:TX:a:t=P:problem:kreska pseudotaktowa	!	!
2r	.	1F#X	nos-	2D,/	-stras	1A,	-trix	.
!LO:TX:a:t=P:problem:kreska pseudotaktowa	!	!	!	!	!	!	!	!
2D/	No-	.	.	4d\	de-	.	.	.
!	!	!	!	!LO:TX:a:t=P:problem:kreska pseudotaktowa	!	!	!	!
.	.	.	.	4c\	-pre-	.	.	.
=13	=13	=13	=13	=13	=13	=13	=13	=13
!	!	!LO:TX:a:t=P:problem:kreska pseudotaktowa	!	!	!	!	!	!
2GG,/	-stras	1G,	-tras	(4B\	-ca-	0r	.	.
.	.	.	.	4A\	.	.	.	.
1G	de-	.	.	4B\	.	.	.	.
!	!	!	!	!LO:TX:a:t=P:problem:kreska pseudotaktowa	!	!	!	!
.	.	.	.	4c\)	.	.	.	.
.	.	1A	de-	2.d\	.	.	.	.
!LO:TX:a:t=P:problem:kreska pseudotaktowa	!	!	!	!	!	!	!	!
2F#X\	-pre-	.	.	.	.	.	.	.
!	!	!	!	!LO:TX:a:t=P:problem:kreska pseudotaktowa	!	!	!	!
.	.	.	.	4c\	-ti-	.	.	.
=14	=14	=14	=14	=14	=14	=14	=14	=14
!	!	!LO:TX:a:t=P:problem:kreska pseudotaktowa	!	!	!	!	!	!
(4G\	-ca-	1Gn	-pre-	4B\	-o-	2r	.	.
4F\	.	.	.	4c\	.	.	.	.
!	!	!	!	!	!	!LO:TX:a:t=P:problem:kreska pseudotaktowa	!	!
4E\	.	.	.	1d	.	2d\	no-	.
!LO:TX:a:t=P:problem:kreska pseudotaktowa	!	!	!	!	!	!	!	!
4D\)	.	.	.	.	.	.	.	.
*	*	*lig	*	*	*	*	*	*
2Cn/	.	1A	-ca-	.	.	2G,/	-stras	.
!LO:TX:a:t=P:problem:kreska pseudotaktowa	!	!	!	!LO:TX:a:t=P:problem:kreska pseudotaktowa	!	!	!	!
2D/	-ti-	.	.	2e\	.	1g\	de-	.
=15	=15	=15	=15	=15	=15	=15	=15	=15
!	!	!	!	!LO:TX:a:t=P:problem:kreska pseudotaktowa	!	!	!	!
2G\	-o-	1B	.	1d	.	.	.	.
2.GG/	.	.	.	.	.	2f#X\	-pre-	.
!	!	!	!	!	!	!LO:TX:a:t=P:problem:kreska pseudotaktowa	!	!
*	*	*Xlig	*	*	*	*	*	*
!	!	!LO:TX:a:t=P:problem:kreska pseudotaktowa	!	!LO:TX:a:t=P:problem:kreska pseudotaktowa	!	!	!	!
.	.	1Bn	-ti-	1d,	-nes	2.g\	-ca-	.
4AA/	.	.	.	.	.	.	.	.
4BB/	.	.	.	.	.	.	.	.
!LO:TX:a:t=P:problem:kreska pseudotaktowa	!	!	!	!	!	!LO:TX:a:t=P:problem:kreska pseudotaktowa	!	!
4C/	.	.	.	.	.	4e\	.	.
=16	=16	=16	=16	=16	=16	=16	=16	=16
!	!	!LO:TX:a:t=P:problem:kreska pseudotaktowa	!	!	!	!	!	!
2D/	.	1A	-o-	2.d\	ne	2.d\	.	.
2C/	.	.	.	.	.	.	.	.
!	!	!	!	!LO:TX:a:t=P:problem:kreska pseudotaktowa	!	!LO:TX:a:t=P:problem:kreska pseudotaktowa	!	!
.	.	.	.	4c\	.	4e\	.	.
!LO:TX:a:t=P:problem:kreska pseudotaktowa	!	!	!	!	!	!	!	!
!LO:SIC:v:t=custos GG	!	!LO:TX:a:t=P:problem:kreska pseudotaktowa	!	!LO:TX:a:t=P:problem:kreska pseudotaktowa	!	!	!	!
1D	.	1A,	-nes	1Bn	.	4f#X\	.	.
.	.	.	.	.	.	4d\	.	.
.	.	.	.	.	.	1g\	.	.
!	!	!	!	!	!	!	!	!
!LO:LB:g=original	!	!	!	!LO:LB:g=original	!	!	!	!
=17	=17	=17	=17	=17	=17	=17	=17	=17
!	!	!LO:TX:a:t=P:problem:kreska pseudotaktowa	!	!	!	!	!	!
2GG,/	-nes	1B,	nè	4c\	de-	.	.	.
.	.	.	.	4B\	.	.	.	.
!	!	!	!	!	!	!LO:TX:a:t=P:problem:kreska pseudotaktowa	!	!
1G	ne	.	.	4A\	.	2f#X\	-ti-	.
!	!	!	!	!LO:TX:a:t=P:problem:kreska pseudotaktowa	!	!	!	!
.	.	.	.	4G/	.	.	.	.
!	!	!	!	!	!	!	!	!
!	!	!	!	!	!	!LO:LB:g=original	!	!
!	!	!	!	!	!	!LO:TX:a:t=P:problem:kreska pseudotaktowa	!	!
.	.	1A	de-	2.d\	-spi-	1g	-o-	.
!LO:TX:a:t=P:problem:kreska pseudotaktowa	!	!	!	!	!	!	!	!
2F#X\	de-	.	.	.	.	.	.	.
!	!	!	!	!LO:TX:a:t=P:problem:kreska pseudotaktowa	!	!	!	!
.	.	.	.	4d\	-ci-	.	.	.
=18	=18	=18	=18	=18	=18	=18	=18	=18
!	!	!	!	!LO:TX:a:t=P:problem:kreska pseudotaktowa	!	!LO:TX:a:t=P:problem:kreska pseudotaktowa	!	!
(4G\	-spi-	2.G/	-spi-	1d,	-as	1a,	-nes	.
4F\	.	.	.	.	.	.	.	.
4E\	.	.	.	.	.	.	.	.
!LO:TX:a:t=P:problem:kreska pseudotaktowa	!	!LO:TX:t=P:problem:# na wysokości dźwięku D#	!	!	!	!	!	!
4D\)	.	4F#X/	-ci-	.	.	.	.	.
!	!	!LO:TX:a:t=P:problem:kreska pseudotaktowa	!	!	!	!	!	!
4C/	.	1E	-as	2r	.	2d\	de-	.
4D/	.	.	.	.	.	.	.	.
!LO:TX:a:t=P:problem:kreska pseudotaktowa	!	!	!	!	!	!	!	!
2E\	.	.	.	1d\	in	1g\	-spi-	.
=19	=19	=19	=19	=19	=19	=19	=19	=19
*	*	*lig	*	*	*	*	*	*
2.D/	.	1F#X	in	.	.	.	.	.
!	!	!	!	!LO:TX:a:t=P:problem:kreska pseudotaktowa	!	!LO:TX:a:t=P:problem:kreska pseudotaktowa	!	!
.	.	.	.	2c#X\	ne-	2e\	-ci-	.
!LO:TX:a:t=P:problem:kreska pseudotaktowa	!	!	!	!	!	!	!	!
4D/	-ci-	.	.	.	.	.	.	.
!	!	!LO:TX:a:t=P:problem:kreska pseudotaktowa	!	!LO:TX:a:t=P:problem:kreska pseudotaktowa	!	!	!	!
2GG/	-as.	1G	.	1d	-ceſ-	2A/	-as	.
1G\	in	.	.	.	.	2d\	in	.
!	!	!	!	!	!	!LO:TX:a:t=P:problem:kreska pseudotaktowa	!	!
*	*	*Xlig	*	*	*	*	*	*
=20	=20	=20	=20	=20	=20	=20	=20	=20
!	!	!LO:TX:a:t=P:problem:kreska pseudotaktowa	!	!	!	!LO:TX:a:t=P:problem:kreska pseudotaktowa	!	!
.	.	1A,	.	2G/	-si-	1B	ne-	.
!LO:TX:a:t=P:problem:kreska pseudotaktowa	!	!	!	!LO:TX:a:t=P:problem:kreska pseudotaktowa	!	!	!	!
2F#X\	ne-	.	.	[<2A/	-ta-	.	.	.
!LO:TX:a:t=P:problem:kreska pseudotaktowa	!	!LO:TX:a:t=P:problem:kreska pseudotaktowa	!	!	!	!	!	!
!	!	!	!	!LO:N:xstem:cue	!	!	!	!
1E	-ceſ-	1G	ne-	4A/]	.	4d\	-ceſ-	.
.	.	.	.	4A/	-ti-	4e\	-si-	.
.	.	.	.	1B\	-bus	4f#X\	.	.
!	!	!	!	!	!	!LO:TX:a:t=P:problem:kreska pseudotaktowa	!	!
.	.	.	.	.	.	4d\	.	.
=21	=21	=21	=21	=21	=21	=21	=21	=21
!	!	!LO:TX:a:t=P:problem:kreska pseudotaktowa	!	!	!	!	!	!
!	!	!LO:SIC:v:t=custos E	!	!	!	!	!	!
2D/	-si-	1F#X	-ceſ-	.	.	2.e\	-ta-	.
!LO:TX:a:t=P:problem:kreska pseudotaktowa	!	!	!	!	!	!	!	!
[<2D/	-ta-	.	.	1A	no-	.	.	.
!	!	!	!	!	!	!LO:TX:a:t=P:problem:kreska pseudotaktowa	!	!
.	.	.	.	.	.	4e\	-ti-	.
!	!	!	!	!	!	!	!	!
!	!	!LO:LB:g=original	!	!	!	!	!	!
!LO:N:xstem:cue:vis	!	!LO:TX:a:t=P:problem:kreska pseudotaktowa	!	!	!	!LO:TX:a:t=P:problem:kreska pseudotaktowa	!	!
4D/]	.	1E	-si-	.	.	1A	-bus	.
4D/	-ti-	.	.	.	.	.	.	.
!LO:TX:a:t=P:problem:kreska pseudotaktowa	!	!	!	!LO:TX:a:t=P:problem:kreska pseudotaktowa	!	!	!	!
2C#X/	-bus	.	.	2G#X/	.	.	.	.
=22	=22	=22	=22	=22	=22	=22	=22	=22
!	!	!LO:TX:a:t=P:problem:kreska pseudotaktowa	!	!LO:TX:a:t=P:problem:kreska pseudotaktowa	!	!LO:TX:a:t=P:problem:kreska pseudotaktowa	!	!
4D/	no-	1F#X	-ta-	[<1A,	-stris.	[<1e	no-	.
4C/	.	.	.	.	.	.	.	.
4BB/	.	.	.	.	.	.	.	.
!LO:TX:a:t=P:problem:kreska pseudotaktowa	!	!	!	!	!	!	!	!
4AA/	.	.	.	.	.	.	.	.
!	!	!LO:TX:a:t=P:problem:kreska pseudotaktowa	!	!	!	!LO:N:xstem:cue:vis	!	!
!	!	!	!	!LO:N:xstem:cue:vis	!	!	!	!
2GG/	.	1E	-ti-	2A]	.	2e]	.	.
!LO:TX:a:t=P:problem:kreska pseudotaktowa	!	!	!	!LO:TX:a:t=P:problem:kreska pseudotaktowa	!	!	!	!
2AA/	.	.	.	2B\	Sed	1d\	.	.
=23	=23	=23	=23	=23	=23	=23	=23	=23
*lig	*	*	*	*	*	*	*	*
1BB	.	2D,/	-bus	2G/	à	.	.	.
!	!	!	!	!LO:TX:a:t=P:problem:kreska pseudotaktowa	!	!LO:TX:a:t=P:problem:kreska pseudotaktowa	!	!
.	.	1D	no-	2B\	pe-	2c#X/	.	.
1AA	.	.	.	1.c	-ri-	2.d\	.	.
.	.	2C#X/	.	.	.	.	.	.
.	.	.	.	.	.	4e\	.	.
!	!	!LO:TX:a:t=P:problem:kreska pseudotaktowa	!	!	!	!LO:TX:a:t=P:problem:kreska pseudotaktowa	!	!
*Xlig	*	*	*	*	*	*	*	*
=24	=24	=24	=24	=24	=24	=24	=24	=24
!LO:TX:a:t=P:problem:kreska pseudotaktowa	!	!LO:TX:a:t=P:problem:kreska pseudotaktowa	!	!	!	!	!	!
1D,	-stris	1D,	-stris.	.	.	2f\	.	.
!	!	!	!	!	!	!LO:TX:a:t=P:problem:kreska pseudotaktowa	!	!
.	.	.	.	2c\	-cu-	2e\	.	.
!LO:TX:a:t=P:problem:kreska pseudotaktowa	!	!LO:TX:a:t=P:problem:kreska pseudotaktowa	!	!LO:TX:a:t=P:problem:kreska pseudotaktowa	!	!	!	!
1r	.	1E	Sed	1B,	-lis	1f#X,	-stris.	.
!	!	!	!	!	!	!	!	!
!LO:LB:g=original	!	!	!	!	!	!	!	!
=25	=25	=25	=25	=25	=25	=25	=25	=25
!	!	!LO:TX:a:t=P:problem:kreska pseudotaktowa	!	!	!	!	!	!
2r	.	1Cn	à	2.B\	cun-	2r	.	.
!LO:TX:a:t=P:problem:kreska pseudotaktowa	!	!	!	!	!	!LO:TX:a:t=P:problem:kreska pseudotaktowa	!	!
2E\	Sed	.	.	.	.	2g\	Sed	.
!	!	!	!	!LO:TX:a:t=P:problem:kreska pseudotaktowa	!	!	!	!
.	.	.	.	4A/	.	.	.	.
!LO:TX:a:t=P:problem:kreska pseudotaktowa	!	!	!	!LO:TX:a:t=P:problem:kreska pseudotaktowa	!	!	!	!
1C	à	1E	pe-	1G,	-ctis.	2.e\	à	.
!	!	!	!	!	!	!LO:TX:a:t=P:problem:kreska pseudotaktowa	!	!
!	!	!	!	!	!	!LO:SIC:v:t=custos g	!	!
.	.	.	.	.	.	4f\	.	.
!	!	!	!	!	!	!	!	!
!	!	!	!	!	!	!LO:LB:g=original	!	!
=26	=26	=26	=26	=26	=26	=26	=26	=26
!LO:TX:a:t=P:problem:kreska pseudotaktowa	!	!	!	!	!	!LO:TX:a:t=P:problem:kreska pseudotaktowa	!	!
1E	pe-	1G	.	00r	.	1g	pe-	.
2.BB/	-ri-	2.F#X/	-ri-	.	.	4g\	-ri-	.
.	.	.	.	.	.	4f#X\	-cu-	.
.	.	.	.	.	.	1e\	-lis	.
!LO:TX:a:t=P:problem:kreska pseudotaktowa	!	!	!	!	!	!	!	!
4BB/	-cu-	4F#/	-cu-	.	.	.	.	.
=27	=27	=27	=27	=27	=27	=27	=27	=27
!	!	!LO:TX:a:t=P:problem:kreska pseudotaktowa	!	!	!	!	!	!
2Cn,/	-lis	1E,	-lis	.	.	.	.	.
!	!	!	!	!	!	!LO:TX:a:t=P:problem:kreska pseudotaktowa	!	!
4C/	cun-	.	.	.	.	2d#X\	cun-	.
!LO:TX:a:t=P:problem:kreska pseudotaktowa	!	!	!	!	!	!	!	!
4D/	.	.	.	.	.	.	.	.
*	*	*lig	*	*	*	*	*	*
!	!	!	!	!	!	!LO:TX:a:t=P:problem:kreska pseudotaktowa	!	!
4E\	.	1Gn	cun-	.	.	1e,	-ctis	.
4F\	.	.	.	.	.	.	.	.
1G\	.	.	.	.	.	.	.	.
=28	=28	=28	=28	=28	=28	=28	=28	=28
!	!	!	!	!LO:TX:a:t=P:problem:kreska pseudotaktowa	!	!	!	!
.	.	1A	.	1r	.	2c/	li-	.
4F#X\	.	.	.	.	.	4B/	-be-	.
4E\	.	.	.	.	.	4c/	-ra	.
!LO:TX:a:t=P:problem:kreska pseudotaktowa	!	!	!	!	!	!LO:TX:a:t=P:problem:kreska pseudotaktowa	!	!
*	*	*Xlig	*	*	*	*	*	*
!	!	!	!	!	!	!	!	!
!	!	!	!	!LO:LB:g=original	!	!	!	!
!LO:TX:a:t=P:problem:kreska pseudotaktowa	!	!LO:TX:a:t=P:problem:kreska pseudotaktowa	!	!	!	!	!	!
1F#X	.	1A	-ctis	2r	.	0d	nos	.
.	.	.	.	1d\	li-	.	.	.
=29	=29	=29	=29	=29	=29	=29	=29	=29
!LO:TX:a:t=P:problem:kreska pseudotaktowa	!	!LO:TX:a:t=P:problem:kreska pseudotaktowa	!	!	!	!LO:TX:a:t=P:problem:kreska pseudotaktowa	!	!
1G,	-ctis	1Bn	li-	.	.	.	.	.
!	!	!	!	!LO:TX:a:t=P:problem:kreska pseudotaktowa	!	!	!	!
.	.	.	.	2c#X\	-be-	.	.	.
1.D	li-	2.A/	-be-	1.d,	-ra	(2d\	li-	.
!	!	!	!	!	!	!LO:TX:a:t=P:problem:kreska pseudotaktowa	!	!
.	.	.	.	.	.	[<2g\	-be-	.
.	.	4G/	.	.	.	.	.	.
=30	=30	=30	=30	=30	=30	=30	=30	=30
!	!	!LO:TX:a:t=P:problem:kreska pseudotaktowa	!	!	!	!LO:N:xstem:cue	!	!
.	.	1F#X	-ra	.	.	4g]	.	.
.	.	.	.	.	.	4g\	-ra	.
!LO:TX:a:t=P:problem:kreska pseudotaktowa	!	!	!	!LO:TX:a:t=P:problem:kreska pseudotaktowa	!	!	!	!
2D\	-be-	.	.	2d\	nos	4f#X\	nos	.
!	!	!	!	!	!	!LO:TX:a:t=P:problem:kreska pseudotaktowa	!	!
.	.	.	.	.	.	4g\	.	.
!LO:TX:a:t=P:problem:kreska pseudotaktowa	!	!LO:TX:a:t=P:problem:kreska pseudotaktowa	!	!	!	!LO:TX:a:t=P:problem:kreska pseudotaktowa	!	!
1E	-ra	1G	nos	(4e\	sem-	(1a	sem-	.
.	.	.	.	4d\	.	.	.	.
.	.	.	.	1d\	.	.	.	.
=31	=31	=31	=31	=31	=31	=31	=31	=31
*	*	*lig	*	*	*	*	*	*
2.D/	nos	1A	sem-	.	.	2g\)	.	.
!	!	!	!	!LO:TX:a:t=P:problem:kreska pseudotaktowa	!	!LO:TX:a:t=P:problem:kreska pseudotaktowa	!	!
.	.	.	.	2c#X\	.	2e\	.	.
!LO:TX:a:t=P:problem:kreska pseudotaktowa	!	!	!	!	!	!	!	!
4C/	.	.	.	.	.	.	.	.
!	!	!LO:SIC:v:t=custos A	!	!LO:TX:a:t=P:problem:kreska pseudotaktowa	!	!LO:TX:a:t=P:problem:kreska pseudotaktowa	!	!
2.BB/	/li-	1B	.	1d,	-per	1f#X	.	.
4BB/	-be-	.	.	.	.	.	.	.
!LO:TX:a:t=P:problem:kreska pseudotaktowa	!	!	!	!	!	!	!	!
*	*	*Xlig	*	*	*	*	*	*
!	!	!	!	!	!	!	!	!
!	!	!LO:LB:g=original	!	!	!	!	!	!
=32	=32	=32	=32	=32	=32	=32	=32	=32
*	*	*lig	*	*	*	*	*	*
2C,/	-ra/	1A	.	1.d	/sem-	2g,\	-per	.
!LO:TX:a:t=P:problem:kreska pseudotaktowa	!	!	!	!	!	!	!	!
2D/	nos	.	.	.	.	1g	Sem-	.
!LO:LB:g=original	!	!	!	!	!	!	!	!
!LO:TX:a:t=P:problem:kreska pseudotaktowa	!	!	!	!	!	!	!	!
1E	sem-	1G	.	.	.	.	.	.
.	.	.	.	2D/	.	2f#X\	.	.
!	!	!	!	!LO:TX:a:t=P:problem:kreska pseudotaktowa	!	!LO:TX:a:t=P:problem:kreska pseudotaktowa	!	!
*	*	*Xlig	*	*	*	*	*	*
=33	=33	=33	=33	=33	=33	=33	=33	=33
*	*	*lig	*	*	*	*	*	*
!	!	!	!	!LO:TX:a:t=P:problem:kreska pseudotaktowa	!	!LO:TX:a:t=P:problem:kreska pseudotaktowa	!	!
2.D/	.	1F#X	.	1G,	-per/	1e	.	.
!LO:TX:a:t=P:problem:kreska pseudotaktowa	!	!	!	!	!	!	!	!
4C/	.	.	.	.	.	.	.	.
!	!	!	!	!	!	!LO:TX:a:t=P:problem:kreska pseudotaktowa	!	!
!	!	!	!	!	!	!LO:SIC:v:t=custos B	!	!
4BB/	.	1G	.	0G	Vir-	1A,	-per	.
4GG/	.	.	.	.	.	.	.	.
1G\	.	.	.	.	.	.	.	.
*	*	*Xlig	*	*	*	*	*	*
!	!	!	!	!	!	!	!	!
!	!	!	!	!	!	!LO:LB:g=original	!	!
=34	=34	=34	=34	=34	=34	=34	=34	=34
!	!	!	!	!LO:TX:a:t=P:problem:kreska pseudotaktowa	!	!	!	!
.	.	1A	.	.	.	2.B/	sem-	.
!LO:TX:a:t=P:problem:kreska pseudotaktowa	!	!	!	!	!	!	!	!
2F#X\	.	.	.	.	.	.	.	.
!	!	!	!	!	!	!LO:TX:a:t=P:problem:kreska pseudotaktowa	!	!
.	.	.	.	.	.	4c/	.	.
!LO:TX:a:t=P:problem:kreska pseudotaktowa	!	!LO:TX:a:t=P:problem:kreska pseudotaktowa	!	!	!	!	!	!
1G,	-per	1G,	-per	2G/	-go	2.d\	.	.
.	.	.	.	2.A\	glo-	.	.	.
!	!	!	!	!	!	!LO:TX:a:t=P:problem:kreska pseudotaktowa	!	!
.	.	.	.	.	.	4c/	.	.
=35	=35	=35	=35	=35	=35	=35	=35	=35
!	!	!	!	!	!	!LO:TX:a:t=P:problem:kreska pseudotaktowa	!	!
1.Cn	Vir-	1E	Vir-	.	.	1B,	-per	.
.	.	.	.	4A\	-ri-	.	.	.
.	.	.	.	1Bn	-o-	.	.	.
!	!	!LO:TX:a:t=P:problem:kreska pseudotaktowa	!	!	!	!	!	!
.	.	1D	-go	.	.	0c	Vir-	.
!LO:TX:a:t=P:problem:kreska pseudotaktowa	!	!	!	!	!	!	!	!
2BB/	-go	.	.	1G/	-sa	.	.	.
=36	=36	=36	=36	=36	=36	=36	=36	=36
!LO:TX:a:t=P:problem:kreska pseudotaktowa	!	!	!	!	!	!	!	!
1C	glo-	1E	glo-	.	.	.	.	.
!	!	!	!	!LO:TX:a:t=P:problem:kreska pseudotaktowa	!	!	!	!
.	.	.	.	2G/	et	.	.	.
!LO:TX:a:t=P:problem:kreska pseudotaktowa	!	!	!	!	!	!LO:TX:a:t=P:problem:kreska pseudotaktowa	!	!
1D	-ri-	2F#X/	.	2A\	be-	1c	-go	.
!	!	!LO:TX:a:t=P:problem:kreska pseudotaktowa	!	!LO:TX:a:t=P:problem:kreska pseudotaktowa	!	!	!	!
.	.	2F#/	-ri-	2Bn\	-ne-	.	.	.
=37	=37	=37	=37	=37	=37	=37	=37	=37
!	!	!	!	!LO:TX:a:t=P:problem:kreska pseudotaktowa	!	!	!	!
2.E\	-o-	2.G/	-o-	1A	-di-	2r	.	.
!	!	!	!	!	!	!LO:TX:a:t=P:problem:kreska pseudotaktowa	!	!
.	.	.	.	.	.	2d\	glo-	.
!LO:TX:a:t=P:problem:kreska pseudotaktowa	!	!	!	!	!	!	!	!
4D/	.	4F/	.	.	.	.	.	.
!	!	!	!	!	!	!	!	!
!	!	!	!	!LO:LB:g=original	!	!	!	!
!	!	!LO:TX:a:t=P:problem:kreska pseudotaktowa	!	!	!	!	!	!
2.C/	.	1E	-sa	2A,/	-cta	2B/	-ri-	.
!	!	!	!	!	!	!LO:TX:a:t=P:problem:kreska pseudotaktowa	!	!
.	.	.	.	1A\	et	[<2e\	-o-	.
!LO:TX:a:t=P:problem:kreska pseudotaktowa	!	!	!	!	!	!	!	!
4BB/	.	.	.	.	.	.	.	.
=38	=38	=38	=38	=38	=38	=38	=38	=38
!	!	!	!	!	!	!LO:N:xstem:cue	!	!
2AA/	.	1E	&	.	.	4e]	.	.
.	.	.	.	.	.	4fn\	.	.
!LO:TX:a:t=P:problem:kreska pseudotaktowa	!	!	!	!	!	!	!	!
2GG/	.	.	.	1Gn	.	4e\	.	.
!	!	!	!	!	!	!LO:TX:a:t=P:problem:kreska pseudotaktowa	!	!
.	.	.	.	.	.	4d\	.	.
2.FF/	.	1Fn	be-	.	.	4c\	.	.
.	.	.	.	.	.	4d\	.	.
!	!	!	!	!LO:TX:a:t=P:problem:kreska pseudotaktowa	!	!LO:TX:a:t=P:problem:kreska pseudotaktowa	!	!
.	.	.	.	2d\	.	[<2e\	.	.
!LO:TX:a:t=P:problem:kreska pseudotaktowa	!	!	!	!	!	!	!	!
4GG/	.	.	.	.	.	.	.	.
=39	=39	=39	=39	=39	=39	=39	=39	=39
!LO:TX:a:t=P:problem:kreska pseudotaktowa	!	!LO:TX:a:t=P:problem:kreska pseudotaktowa	!	!	!	!	!	!
!	!	!	!	!	!	!LO:N:xstem:cue	!	!
1AA	.	1E	-ne-	2B-X\	be-	4e]	.	.
.	.	.	.	.	.	4d\	.	.
!	!	!	!	!LO:TX:a:t=P:problem:kreska pseudotaktowa	!	!	!	!
.	.	.	.	2A\	-ne-	1d	.	.
!	!	!	!	!LO:TX:a:t=P:problem:kreska pseudotaktowa	!	!	!	!
2BB-X,/	-sa	[<0D	-di-	1G	-di-	.	.	.
!LO:TX:a:t=P:problem:kreska pseudotaktowa	!	!	!	!	!	!LO:TX:a:t=P:problem:kreska pseudotaktowa	!	!
2B-X\	et	.	.	.	.	2c#X/	.	.
=40	=40	=40	=40	=40	=40	=40	=40	=40
!	!	!LO:TX:a:t=P:problem:kreska pseudotaktowa	!	!	!	!	!	!
2G\	be-	.	.	00.F#X;	-cta.	2d,\	-sa	.
!LO:TX:a:t=P:problem:kreska pseudotaktowa	!	!	!	!	!	!	!	!
2F#X\	-ne-	.	.	.	.	2d\	et	.
0G	-di-	0D]	.	.	.	2B-X/	be-	.
!	!	!	!	!	!	!LO:TX:a:t=P:problem:kreska pseudotaktowa	!	!
.	.	.	.	.	.	2A/	-ne-	.
=41	=41	=41	=41	=41	=41	=41	=41	=41
!	!	!LO:TX:a:t=P:problem:kreska pseudotaktowa	!	!	!	!	!	!
.	.	.	.	.	.	(2G/	-di-	.
.	.	.	.	.	.	2A/)	.	.
0.D;	-cta	0.D;	-cta.	.	.	1B-X	.	.
=42	=42	=42	=42	=42	=42	=42	=42	=42
.	.	.	.	.	.	0A;	-cta	.
!	!	!	!	!	!	!	!	!
!LO:LB:g=original	!	!LO:LB:g=original	!	!	!	!LO:LB:g=original	!	!
=43||	=43||	=43||	=43||	=43||	=43||	=43||	=43||	=43||
*M3/2	*	*M3/2	*	*M3/2	*	*M3/2	*	*
2.G\	Do-	2.Bn\	Do-	2.d\	Do-	2.g\	Do-	.
4G\	-mi-	4B\	-mi-	4d\	-mi-	4g\	-mi-	.
2G\	-na	2B,\	-na	2d\	-na	2g\	-na	.
=44	=44	=44	=44	=44	=44	=44	=44	=44
2.Bn\	/Do-	2.B\	/Do-	2.d\	/Do-	2.g\	/Do-	.
4B\	-mi-	4B\	-mi-	4d\	-mi-	4g\	-mi-	.
2B\	-na/	2B,\	-na/	2d\	-na/	2g\	-na/	.
=45	=45	=45	=45	=45	=45	=45	=45	=45
2.c\	D(o-	2.G/	D(o-	2.e\	D(o-	2.g\	D(o-	.
4c\	-mi)-	4G/	-mi)-	4e\	-mi)-	4g\	-mi)-	.
2B\	-na	2d\	-na	2d\	-na	2d\	-na	.
=46	=46	=46	=46	=46	=46	=46	=46	=46
1A	nos-	1A	no-	1cn	no-	1f#X	no-	.
2G\	-tra	2B\	-stra	2d\	-stra	2g\	-stra	.
=47	=47	=47	=47	=47	=47	=47	=47	=47
2.F#X\	Me-	2.A\	Me-	2.d\	Me-	2.a\	Me-	.
4F#\	-di-	4A\	-di-	4d\	-di-	4a\	-di-	.
2G\	-a-	2B\	-a-	2d\	-a-	2g\	-a-	.
=48	=48	=48	=48	=48	=48	=48	=48	=48
2E\	-trix	2B,\	-trix	2c#X,\	-trix	2g\	-trix	.
!	!	!	!	!LO:SIC:v:t=custos B	!	!	!	!
1F#X	no-	2B\	no-	1c#	no-	1f#X	nos-	.
.	.	2A#X/	.	.	.	.	.	.
!	!	!	!	!	!	!	!	!
!	!	!	!	!LO:LB:g=original	!	!	!	!
=49	=49	=49	=49	=49	=49	=49	=49	=49
2BB,/	-stra	2B,\	-stra	2B,\	-stra	2f#X,\	-tra	.
2B\	ad-	2B\	ad-	2d\	ad-	2f#\	ad-	.
2A\	-vo-	2B\	-vo-	2d\	-vo-	2f#\	-vo-	.
=50	=50	=50	=50	=50	=50	=50	=50	=50
1Gn	-ca-	1Bn	-ca-	1d	-ca-	1g	-ca-	.
2c\	-ta	4c\	-ta	2e\	-ta	2g\	-ta	.
.	.	4d\	.	.	.	.	.	.
=51	=51	=51	=51	=51	=51	=51	=51	=51
2A\	no-	1e	no-	2c\	no-	1.f#X	no-	.
2B\	.	.	.	1Bn	.	.	.	.
2BB/	.	2d#X\	.	.	.	.	.	.
=52	=52	=52	=52	=52	=52	=52	=52	=52
2E,\	-stra	2e\	-stra	2B\	-stra	2e,\	-stra	.
=53	=53	=53	=53	=53	=53	=53	=53	=53
*M2/1	*	*M2/1	*	*M2/1	*	*M2/1	*	*
!LO:TX:a:t=P:problem:kreska pseudotaktowa	!	!LO:TX:a:t=P:problem:kreska pseudotaktowa	!	!LO:TX:a:t=P:problem:kreska pseudotaktowa	!	!LO:TX:a:t=P:problem:kreska pseudotaktowa	!	!
2r	.	2r	.	[<2d\	Tu-	2r	.	.
2r	.	00r	.	2d\]	.	00r	.	.
!LO:TX:a:t=P:problem:kreska pseudotaktowa	!	!	!	!LO:TX:a:t=P:problem:kreska pseudotaktowa	!	!	!	!
[<2G\	Tu-	.	.	2B\	-o	.	.	.
2G]	.	.	.	2.e\	Fi-	.	.	.
=54	=54	=54	=54	=54	=54	=54	=54	=54
!LO:SIC:v:t=custos A	!	!	!	!	!	!	!	!
!LO:TX:a:t=P:problem:kreska pseudotaktowa	!	!	!	!	!	!	!	!
2E\	-o	.	.	.	.	.	.	.
!	!	!	!	!LO:TX:a:t=P:problem:kreska pseudotaktowa	!	!	!	!
.	.	.	.	4d\	-li-	.	.	.
!LO:LB:g=original	!	!	!	!	!	!	!	!
2.A\	Fi-	.	.	(4c#X\	-o	.	.	.
.	.	.	.	4B\)	.	.	.	.
!	!	!	!	!LO:TX:a:t=P:problem:kreska pseudotaktowa	!	!	!	!
.	.	.	.	2c#,\	.	.	.	.
!LO:TX:a:t=P:problem:kreska pseudotaktowa	!	!	!	!	!	!	!	!
4G\	-li-	.	.	.	.	.	.	.
4F#X\	-o	.	.	2d,\	nos	.	.	.
4E\	.	.	.	.	.	.	.	.
=55	=55	=55	=55	=55	=55	=55	=55	=55
!LO:TX:a:t=P:problem:kreska pseudotaktowa	!	!	!	!	!	!	!	!
2F#y\	.	.	.	4.d\	re-	.	.	.
!	!	!	!	!LO:TX:a:t=P:problem:kreska pseudotaktowa	!	!	!	!
.	.	.	.	8c\	-con-	.	.	.
2G\	nos	0r	.	(4B\	-ci-	0r	.	.
.	.	.	.	4c\)	.	.	.	.
!	!	!	!	!LO:TX:a:t=P:problem:kreska pseudotaktowa	!	!	!	!
4.G\	re-	.	.	2d\	.	.	.	.
!LO:TX:a:t=P:problem:kreska pseudotaktowa	!	!	!	!	!	!	!	!
8Fny\	-con-	.	.	.	.	.	.	.
4E\	-ci-	.	.	4cn\	.	.	.	.
4F#X\	.	.	.	4B\	.	.	.	.
=56	=56	=56	=56	=56	=56	=56	=56	=56
!LO:TX:a:t=P:problem:kreska pseudotaktowa	!	!LO:TX:a:t=P:problem:kreska pseudotaktowa	!	!	!	!	!	!
[<2G\	.	.	.	4A/	.	.	.	.
!	!	!	!	!LO:TX:a:t=P:problem:kreska pseudotaktowa	!	!	!	!
.	.	.	.	4G/	.	.	.	.
!	!	!	!	!	!	!LO:SIC:v:t=custos g	!	!
!	!	!	!	!	!	!LO:TX:a:t=P:problem:kreska pseudotaktowa	!	!
4G]	.	2r	.	2.A/	.	1r	.	.
8F#X\L	.	.	.	.	.	.	.	.
8E\J	.	.	.	.	.	.	.	.
!LO:TX:a:t=P:problem:kreska pseudotaktowa	!	!LO:TX:a:t=P:problem:kreska pseudotaktowa	!	!	!	!	!	!
2F#\	-li-	2d\	Tu-	.	.	.	.	.
.	.	.	.	4A/	-li-	.	.	.
!	!	!	!	!	!	!	!	!
!	!	!	!	!	!	!LO:LB:g=original	!	!
1G\	-a.	(4G/	-o	1G/	-a	2r	.	.
.	.	4A/	.	.	.	.	.	.
=57	=57	=57	=57	=57	=57	=57	=57	=57
!LO:TX:a:t=P:problem:kreska pseudotaktowa	!	!	!	!LO:TX:a:t=P:problem:kreska pseudotaktowa	!	!LO:TX:a:t=P:problem:kreska pseudotaktowa	!	!
.	.	4B/	.	.	.	(2g\	Tu-	.
!	!	!LO:TX:a:t=P:problem:kreska pseudotaktowa	!	!	!	!	!	!
.	.	4c/)	.	.	.	.	.	.
!	!	!	!	!	!	!	!	!
!	!	!	!	!LO:PB:g=original	!	!	!	!
0r	.	4d\	Fi-	00r	.	2.fn\)	.	.
.	.	4A\	-li-	.	.	.	.	.
!	!	!LO:TX:a:t=P:problem:kreska pseudotaktowa	!	!	!	!	!	!
.	.	[<2d\	-o	.	.	.	.	.
!	!	!	!	!	!	!LO:TX:a:t=P:problem:kreska pseudotaktowa	!	!
.	.	.	.	.	.	4f\	-o	.
!	!	!LO:N:xstem:cue	!	!	!	!	!	!
.	.	4d\]	.	.	.	2e\	Fi-	.
.	.	4G/	.	.	.	.	.	.
=58	=58	=58	=58	=58	=58	=58	=58	=58
!LO:TX:a:t=P:problem:kreska pseudotaktowa	!	!	!	!	!	!LO:TX:a:t=P:problem:kreska pseudotaktowa	!	!
.	.	2c\	nos	.	.	2e\	-li-	.
!LO:TX:a:t=P:problem:kreska pseudotaktowa	!	!	!	!	!	!	!	!
[<1G	Tu-	2c\	com-	.	.	2e,\	-o	.
.	.	4B\	.	.	.	4d\	nos	.
!	!	!LO:TX:a:t=P:problem:kreska pseudotaktowa	!	!	!	!LO:TX:a:t=P:problem:kreska pseudotaktowa	!	!
.	.	4A\	.	.	.	4c\	com-	.
!LO:N:xstem:cue:vis	!	!	!	!	!	!	!	!
2G]	.	1Bn\	-men-	.	.	4d\	.	.
.	.	.	.	.	.	8e\L	.	.
.	.	.	.	.	.	8f\J	.	.
=59	=59	=59	=59	=59	=59	=59	=59	=59
!LO:TX:a:t=P:problem:kreska pseudotaktowa	!	!LO:TX:a:t=P:problem:kreska pseudotaktowa	!	!	!	!	!	!
2E\	-o	.	.	.	.	4g\	.	.
!	!	!	!	!	!	!LO:TX:a:t=P:problem:kreska pseudotaktowa	!	!
.	.	.	.	.	.	4f\	.	.
!	!	!	!	!LO:TX:a:t=P:problem:kreska pseudotaktowa	!	!	!	!
2.A\	Fi-	2c,\	-da,	1r	.	4e\	.	.
.	.	.	.	.	.	4d\	.	.
!	!	!LO:TX:a:t=P:problem:kreska pseudotaktowa	!	!	!	!LO:TX:a:t=P:problem:kreska pseudotaktowa	!	!
.	.	2c\	Tu-	.	.	2e\	.	.
!LO:TX:a:t=P:problem:kreska pseudotaktowa	!	!	!	!	!	!	!	!
4G\	-li-	.	.	.	.	.	.	.
4F#X\	-o	1A\	-o	2r	.	1d\	-men-	.
4E\	.	.	.	.	.	.	.	.
=60	=60	=60	=60	=60	=60	=60	=60	=60
!LO:TX:a:t=P:problem:kreska pseudotaktowa	!	!LO:TX:a:t=P:problem:kreska pseudotaktowa	!	!	!	!LO:TX:a:t=P:problem:kreska pseudotaktowa	!	!
2F#y\	.	.	.	4.d\	Nos	.	.	.
!	!	!	!	!LO:TX:a:t=P:problem:kreska pseudotaktowa	!	!	!	!
.	.	.	.	8c\	.	.	.	.
2G,\	nos	4G/	Fi-	2B\	re-	2d\	-da	.
.	.	4G/	-li-	.	.	.	.	.
!	!	!LO:TX:a:t=P:problem:kreska pseudotaktowa	!	!	!	!LO:TX:a:t=P:problem:kreska pseudotaktowa	!	!
4.G\	re-	2d\	-o	4.Bn\	-prae-	2r	.	.
!LO:TX:a:t=P:problem:kreska pseudotaktowa	!	!	!	!	!	!	!	!
!LO:SIC:v:t=custos E	!	!	!	!LO:TX:a:t=P:problem:kreska pseudotaktowa	!	!	!	!
8Fny\	-prae-	.	.	8A\	.	.	.	.
!LO:LB:g=original	!	!	!	!	!	!	!	!
4E\	-sen-	[<1e\	nos	4G/	-sen-	2g\	Tu-	.
4D\	.	.	.	4Fn/	.	.	.	.
=61	=61	=61	=61	=61	=61	=61	=61	=61
!	!	!LO:TX:a:t=P:problem:kreska pseudotaktowa	!	!	!	!LO:TX:a:t=P:problem:kreska pseudotaktowa	!	!
4C/	.	.	.	4E/	.	2g\	-o	.
!LO:TX:a:t=P:problem:kreska pseudotaktowa	!	!	!	!	!	!	!	!
4BB/	.	.	.	8F/L	.	.	.	.
!	!	!	!	!LO:TX:a:t=P:problem:kreska pseudotaktowa	!	!	!	!
.	.	.	.	8G/J	.	.	.	.
2AA/	.	2e\]	.	2A\	.	2.fn\	Fi-	.
!LO:TX:a:t=P:problem:kreska pseudotaktowa	!	!LO:TX:a:t=P:problem:kreska pseudotaktowa	!	!LO:TX:a:t=P:problem:kreska pseudotaktowa	!	!	!	!
2BB/	.	2.d\	re-	2d\	.	.	.	.
!	!	!	!	!	!	!LO:TX:a:t=P:problem:kreska pseudotaktowa	!	!
.	.	.	.	.	.	4f\	-li-	.
2.C/	.	.	.	[<1G/	-ta	1e\	-o	.
.	.	8c\L	.	.	.	.	.	.
.	.	8B\J	.	.	.	.	.	.
=62	=62	=62	=62	=62	=62	=62	=62	=62
!	!	!LO:TX:a:t=P:problem:kreska pseudotaktowa	!	!LO:TX:a:t=P:problem:kreska pseudotaktowa	!	!LO:TX:a:t=P:problem:kreska pseudotaktowa	!	!
.	.	[>2cn\	-prae-	.	.	.	.	.
8BB/L	.	.	.	.	.	.	.	.
!LO:TX:a:t=P:problem:kreska pseudotaktowa	!	!	!	!	!	!	!	!
8AA/J	.	.	.	.	.	.	.	.
!	!	!	!	!LO:TX:a:t=P:problem:kreska pseudotaktowa	!	!	!	!
(4GG/	.	2c]	.	1G,]	.	2d\	nos	.
4AA/	.	.	.	.	.	.	.	.
!	!	!LO:TX:a:t=P:problem:kreska pseudotaktowa	!	!	!	!	!	!
4BB/	.	2B\	.	.	.	1g	re-	.
!LO:TX:a:t=P:problem:kreska pseudotaktowa	!	!	!	!	!	!	!	!
4C/)	.	.	.	.	.	.	.	.
4D/	.	1A\	-sen-	1r	.	.	.	.
4AA/	.	.	.	.	.	.	.	.
=63	=63	=63	=63	=63	=63	=63	=63	=63
!	!	!	!	!LO:TX:a:t=P:problem:kreska pseudotaktowa	!	!	!	!
!LO:TX:a:t=P:problem:kreska pseudotaktowa	!	!LO:TX:a:t=P:problem:kreska pseudotaktowa	!	!LO:TX:a:t=P:problem:kreska pseudotaktowa	!	!LO:TX:a:t=P:problem:kreska pseudotaktowa	!	!
[2D/	.	.	.	.	.	2fn\	-prae-	.
!	!	!	!	!	!	!	!	!
!	!	!	!	!	!	!LO:LB:g=original	!	!
!	!	!LO:TX:a:t=P:problem:kreska pseudotaktowa	!	!	!	!LO:TX:a:t=P:problem:kreska pseudotaktowa	!	!
2D/]	.	1A,	-ta	2r	.	1en	-sen-	.
!LO:TX:a:t=P:problem:kreska pseudotaktowa	!	!	!	!LO:TX:a:t=P:problem:kreska pseudotaktowa	!	!	!	!
2C#X,/	-ta	.	.	2A/	Nos	.	.	.
!	!	!	!	!	!	!	!	!
!	!	!LO:PB:g=original	!	!	!	!	!	!
!	!	!LO:TX:a:t=1.	!	!	!	!	!	!
2D\	pre-	1r	.	(4D/	re-	4f\	.	.
.	.	.	.	4E/	.	4e\	.	.
=64	=64	=64	=64	=64	=64	=64	=64	=64
!LO:TX:a:t=P:problem:kreska pseudotaktowa	!	!LO:TX:a:t=P:problem:kreska pseudotaktowa	!	!	!	!	!	!
2D\	-pre-	.	.	4F#X/	.	4d\	.	.
!	!	!	!	!LO:TX:a:t=P:problem:kreska pseudotaktowa	!	!	!	!
.	.	.	.	4G/)	.	8c/L	.	.
!	!	!	!	!	!	!LO:TX:a:t=P:problem:kreska pseudotaktowa	!	!
.	.	.	.	.	.	8B/J	.	.
!LO:TX:a:t=P:problem:kreska pseudotaktowa	!	!	!	!	!	!	!	!
(<1A	-sen-	2e\	Nos	4A\	-prae-	4c\	.	.
.	.	.	.	4B\	.	4d\	.	.
!	!	!LO:TX:a:t=|	!	!	!	!LO:TX:a:t=P:problem:kreska pseudotaktowa	!	!
.	.	4A\	re-	4c#X\	.	2e\	.	.
!	!	!LO:TX:a:t=P:problem:kreska pseudotaktowa	!	!	!	!	!	!
!	!	!LO:TX:a:t=|	!	!LO:TX:a:t=P:problem:kreska pseudotaktowa	!	!	!	!
.	.	4B\	-prae-	4d\	.	.	.	.
1AA/)	.	4c#X\	-sen-	4en\	-sen-	2A/	.	.
.	.	2d\	.	4f\	.	.	.	.
=65	=65	=65	=65	=65	=65	=65	=65	=65
!LO:TX:a:t=P:problem:kreska pseudotaktowa	!	!	!	!LO:TX:a:t=P:problem:kreska pseudotaktowa	!	!	!	!
.	.	.	.	2e\	.	4a\	.	.
!	!	!LO:TX:a:t=P:problem:kreska pseudotaktowa	!	!	!	!LO:TX:a:t=P:problem:kreska pseudotaktowa	!	!
.	.	4c#X\	.	.	.	4g\	.	.
!LO:TX:a:t=P:problem:kreska pseudotaktowa	!	!LO:TX:a:t=P:problem:kreska pseudotaktowa	!	!LO:TX:a:t=P:problem:kreska pseudotaktowa	!	!LO:TX:a:t=P:problem:kreska pseudotaktowa	!	!
1D	-ta	1d,	-ta	1d,	-ta	1f#X	-ta.	.
!	!	!	!	!	!	!	!	!
!	!	!	!	!LO:LB:g=original	!	!	!	!
(4GG/	re-	0r	.	2r	.	2r	.	.
4AA/)	.	.	.	.	.	.	.	.
=66	=66	=66	=66	=66	=66	=66	=66	=66
!	!	!	!	!LO:TX:a:t=P:problem:kreska pseudotaktowa	!	!LO:TX:a:t=P:problem:kreska pseudotaktowa	!	!
(4BB-X/	-prae-	.	.	[<2B-X\	prae-	[<2g\	prae-	.
!LO:TX:a:t=P:problem:kreska pseudotaktowa	!	!	!	!	!	!	!	!
4GG/)	.	.	.	.	.	.	.	.
!LO:TX:a:t=P:problem:kreska pseudotaktowa	!	!	!	!	!	!	!	!
1D	-sen-	.	.	2B-]	.	2g]	.	.
.	.	.	.	4A/	-sen-	4f#X\	-sen-	.
!	!	!	!	!LO:TX:a:t=P:problem:kreska pseudotaktowa	!	!LO:TX:a:t=P:problem:kreska pseudotaktowa	!	!
.	.	.	.	4G/	.	4e\	.	.
1D\	ta	2r	.	1A\	-ta	1f#X\	-ta	.
!LO:LB:g=original	!	!	!	!	!	!	!	!
=67	=67	=67	=67	=67	=67	=67	=67	=67
!LO:TX:a:t=P:problem:kreska pseudotaktowa	!	!LO:TX:a:t=P:problem:kreska pseudotaktowa	!	!LO:TX:a:t=P:problem:kreska pseudotaktowa	!	!LO:TX:a:t=P:problem:kreska pseudotaktowa	!	!
.	.	2r	.	.	.	.	.	.
(4BB-X/	/re-	2B-X\	re-	2r	.	0r	.	.
4C/)	.	.	.	.	.	.	.	.
!	!	!LO:TX:a:t=P:problem:kreska pseudotaktowa	!	!LO:TX:a:t=P:problem:kreska pseudotaktowa	!	!	!	!
(4D/	-prae-	[<2B-\	-prae-	[<2d\	prae-	.	.	.
!LO:TX:a:t=P:problem:kreska pseudotaktowa	!	!	!	!	!	!	!	!
4BB-/)	.	.	.	.	.	.	.	.
1F\	-sen-	2.B-]	.	2d]	.	.	.	.
=68	=68	=68	=68	=68	=68	=68	=68	=68
!LO:TX:a:t=P:problem:kreska pseudotaktowa	!	!	!	!	!	!LO:TX:a:t=P:problem:kreska pseudotaktowa	!	!
.	.	.	.	4c\	-sen-	.	.	.
!	!	!	!	!LO:TX:a:t=P:problem:kreska pseudotaktowa	!	!	!	!
.	.	8A\L	.	4B-X\	.	.	.	.
!	!	!LO:TX:a:t=P:problem:kreska pseudotaktowa	!	!	!	!	!	!
.	.	8G\J	.	.	.	.	.	.
!	!	!	!	!LO:TX:a:t=P:problem:kreska pseudotaktowa	!	!	!	!
2FF,/	-ta/	2.A\	-sen-	1c,	-ta	2r	.	.
!LO:TX:a:t=P:problem:kreska pseudotaktowa	!	!	!	!	!	!LO:TX:a:t=P:problem:kreska pseudotaktowa	!	!
1F\	re-	.	.	.	.	[<2a\	prae-	.
!	!	!LO:TX:a:t=P:problem:kreska pseudotaktowa	!	!	!	!	!	!
!	!	!LO:TX:t=P:problem:zablokowała mi się możliwość usunięcie kasownika...	!	!	!	!	!	!
.	.	4B\	.	.	.	.	.	.
.	.	1c\	.	1r	.	2a\]	.	.
=69	=69	=69	=69	=69	=69	=69	=69	=69
!LO:TX:a:t=P:problem:kreska pseudotaktowa	!	!LO:TX:a:t=P:problem:kreska pseudotaktowa	!	!LO:TX:a:t=P:problem:kreska pseudotaktowa	!	!LO:TX:a:t=P:problem:kreska pseudotaktowa	!	!
2En\	-prae-	.	.	.	.	2gn\	.	.
*lig	*	*	*	*	*	*	*	*
!	!	!LO:TX:a:t=P:problem:kreska pseudotaktowa	!	!LO:TX:a:t=P:problem:kreska pseudotaktowa	!	!LO:TX:a:t=P:problem:kreska pseudotaktowa	!	!
1D	-sen-	1dn	.	[<1A	nos	1fn	.	.
!	!	!	!	!LO:N:xstem:cue:vis	!	!	!	!
1C/	.	4.en\	.	2A]	.	[<1e\	.	.
.	.	8d\	.	.	.	.	.	.
=70	=70	=70	=70	=70	=70	=70	=70	=70
!	!	!LO:TX:a:t=P:problem:♮ above	!	!LO:TX:a:t=P:problem:kreska pseudotaktowa	!	!LO:TX:a:t=P:problem:kreska pseudotaktowa	!	!
.	.	4.cn\	.	2G/	.	.	.	.
!	!	!LO:TX:a:t=P:problem:kreska pseudotaktowa	!	!	!	!	!	!
.	.	8B\	.	.	.	.	.	.
!LO:TX:a:t=P:problem:kreska pseudotaktowa	!	!LO:TX:a:t=P:problem:kreska pseudotaktowa	!	!LO:TX:a:t=P:problem:kreska pseudotaktowa	!	!	!	!
1D	.	1A,	-ta	1F#X,	.	2e]	.	.
.	.	.	.	.	.	2d\	.	.
!	!	!	!	!	!	!LO:TX:a:t=P:problem:kreska pseudotaktowa	!	!
!	!	!	!	!	!	!LO:SIC:v:t=custos d	!	!
*Xlig	*	*	*	*	*	*	*	*
!	!	!	!	!	!	!	!	!
!	!	!LO:LB:g=original	!	!	!	!LO:LB:g=original	!	!
2GG,/	-ta	[<1B-X\	re-	[<1G/	re-	[<0d\	sen-	.
=71	=71	=71	=71	=71	=71	=71	=71	=71
!LO:TX:a:t=P:problem:kreska pseudotaktowa	!	!LO:TX:a:t=P:problem:kreska pseudotaktowa	!	!LO:TX:a:t=P:problem:kreska pseudotaktowa	!	!LO:TX:a:t=P:problem:kreska pseudotaktowa	!	!
[<2G\	re-	.	.	.	.	.	.	.
!	!	!LO:N:xstem:cue:vis	!	!	!	!	!	!
2G]	.	2B-/]	.	2G]	.	.	.	.
!LO:TX:a:t=P:problem:kreska pseudotaktowa	!	!LO:TX:a:t=P:problem:kreska pseudotaktowa	!	!LO:TX:a:t=P:problem:kreska pseudotaktowa	!	!	!	!
2D\	-prae-	2A/\	-prae-	2F#X/	-prae-	.	.	.
[<1G\	-sen-	[<1B-X\	-sen-	0G/	-sen-	0d\]	.	.
=72	=72	=72	=72	=72	=72	=72	=72	=72
!LO:TX:a:t=P:problem:kreska pseudotaktowa	!	!LO:TX:a:t=P:problem:kreska pseudotaktowa	!	!LO:TX:a:t=P:problem:kreska pseudotaktowa	!	!LO:TX:a:t=P:problem:kreska pseudotaktowa	!	!
.	.	.	.	.	.	.	.	.
1G]	.	1B-\]	.	.	.	.	.	.
!LO:TX:a:t=P:problem:kreska pseudotaktowa	!	!LO:TX:a:t=P:problem:kreska pseudotaktowa	!	!	!	!	!	!
.	.	.	.	.	.	.	.	.
00D;\	-ta.	00A;\	-ta.	00F#X;/	-ta	00d;\	-ta.	.
!LO:TX:b:t=O ad M D. Gm	!	!LO:TX:b:t=O ad M D. Gm	!	!LO:TX:b:t=O. ad M. D. Gm	!	!LO:TX:b:t=O. ad M. D Gm	!	!
==	==	==	==	==	==	==	==	==
*-	*-	*-	*-	*-	*-	*-	*-	*-
!!!system-decoration: [(s1,s2,s3,s4)]
!!!RDF**kern: > = above
!!!RDF**kern: < = below
!!!EED: Leszek Kubiak
!!!EST: 2021-04-11
!!!ENC: Marcin Jachim
!!!END: 2021-03-25
